X: 1
T: PRESIDENT GARFIELD'S -- HORNPIPE
C: Harry Carleton
B: Ryan's Mammoth Collection of Fiddle Tunes
R: hornpipe
M: 2/4
L: 1/16
Z: Contributed 20000427134328 by John Chambers jchambers:casc.com
K: Bb
(udc) \
| BFDF BFDF | BABc dcde | fcAc fcAc | f=efg f_edc |
| BFDF BFDF | BABc dcde | fgag fedc | B2d2B2 :|
|: (uba) \
| geBG EGBg | fdBF DFBf | eAgf eAgf | dBgf dBba |
| geBG EGBg | fdBF DFBf | =efag f_edc | B2d2B2 :|
